www/assets/icons/no_transfer.svg

<svg width="24" height="24" viewBox="0 0 24 24" xmlns="http://www.w3.org/2000/svg" fill='currentColor'><path d="M21.9 20.8848L3.51998 2.50482L2.09998 3.91482L4.70998 6.52482V15.6948C4.70998 16.5748 5.09998 17.3648 5.70998 17.9148V19.6948C5.70998 20.2448 6.15998 20.6948 6.70998 20.6948H7.70998C8.25998 20.6948 8.70998 20.2448 8.70998 19.6948V18.6948H16.71V19.6948C16.71 20.2448 17.16 20.6948 17.71 20.6948H18.71C18.76 20.6948 18.8 20.6748 18.85 20.6648L20.49 22.3048L21.9 20.8848ZM8.20998 16.6948C7.37998 16.6948 6.70998 16.0248 6.70998 15.1948C6.70998 14.3648 7.37998 13.6948 8.20998 13.6948C9.03998 13.6948 9.70998 14.3648 9.70998 15.1948C9.70998 16.0248 9.03998 16.6948 8.20998 16.6948ZM6.70998 10.6948V8.52482L8.87998 10.6948H6.70998ZM9.53998 5.69482L6.48998 2.64482C7.94998 1.85482 10.19 1.69482 12.71 1.69482C17.13 1.69482 20.71 2.19482 20.71 5.69482V15.6948C20.71 16.0448 20.63 16.3648 20.52 16.6748L14.54 10.6948H18.71V5.69482H9.53998Z"/></svg>

<svg xmlns="http://www.w3.org/2000/svg" width="24" height="24" viewBox="0 0 24 24" fill='currentColor'><path d="M21.9 20.885 3.52 2.505 2.1 3.915l2.61 2.61v9.17c0 .88.39 1.67 1 2.22v1.78c0 .55.45 1 1 1h1c.55 0 1-.45 1-1v-1h8v1c0 .55.45 1 1 1h1c.05 0 .09-.02.14-.03l1.64 1.64zm-13.69-4.19c-.83 0-1.5-.67-1.5-1.5s.67-1.5 1.5-1.5 1.5.67 1.5 1.5-.67 1.5-1.5 1.5m-1.5-6v-2.17l2.17 2.17zm2.83-5-3.05-3.05c1.46-.79 3.7-.95 6.22-.95 4.42 0 8 .5 8 4v10c0 .35-.08.67-.19.98l-5.98-5.98h4.17v-5z"/></svg>
